X: 1591
T: Jerry Daly's Hornpipe - 2nd Setting   #2
R: hornpipe
%S: s:2 b:9(5+4)
B: O'Neill's 1850 #1591
O: J.O'Neill
Z: Michael D. Long, 9/29/98
Z: Michael Hogan
N: Compacted via repeats and multiple endings [JC]
N: Compacted by using labels and play order [JC]
P: Play (A1A2)x2 + (BA2)x2
M: C|
L: 1/8
K: A
"^A"|: (ed) | c2(Bc) ABcA | GFEF GABd  | (eg)(fa) gedB |[1,3 B2G2 G2 :|[2,4 A2A2 "^fine"A2 :|
"^B"|:  e2  | agab   aged | B2G2 G2(ef)| {a}gfga  gfed | e2a2 "^->A2"a2 |]
